src/categories-icons-sprite/categories/svg-cat-sport-winter.svg

<svg width="32" height="27" viewBox="0 0 32 27" fill="none" xmlns="http://www.w3.org/2000/svg">
<path class="p-CAE8F9" d="M27.6592 19.1534V22.4595H0V0H14.3529V8.47797H16.9831C17.0388 8.47797 17.0941 8.47845 17.1499 8.47918C17.858 8.49033 18.5502 8.57034 19.2193 8.71313C19.8635 8.85156 20.4858 9.04696 21.0812 9.29594C24.1706 10.585 26.5297 13.2852 27.347 16.5877C27.5513 17.41 27.6592 18.269 27.6592 19.1534Z" fill="#B9DFFC"/>
<path class="p-7FC8F1" d="M27.3473 16.5875C26.5301 13.285 24.1709 10.5848 21.0816 9.29576C20.4862 9.04678 19.8638 8.85137 19.2197 8.71294C18.5506 8.57015 17.8584 8.49015 17.1502 8.47899C17.0945 8.47827 17.0392 8.47778 16.9834 8.47778H14.3533V8.47754H14.3525V22.4593H27.6596V19.1532C27.6596 18.2688 27.5517 17.4098 27.3473 16.5875Z" fill="#A1D1FD"/>
<path class="p-CAE8F9" d="M31.0555 21.9657C31.4537 21.9657 31.7765 22.2885 31.7765 22.6867C31.7765 25.0657 29.8414 27.0001 27.4631 27.0001H0V25.1382H6.9659V21.5286H8.8278V25.1382H18.5844V21.5286H20.4463V25.1382H27.4631C28.8149 25.1382 29.9146 24.0385 29.9146 22.6867C29.9146 22.2885 30.2374 21.9657 30.6356 21.9657H31.0555Z" fill="#B9DFFC"/>
<path class="p-3A4DE3" d="M17.149 8.47924V13.0465C17.149 13.5606 16.7322 13.9774 16.2181 13.9774C15.7039 13.9774 15.2871 13.5606 15.2871 13.0465V8.47803H16.9822C17.038 8.47803 17.0933 8.47851 17.149 8.47924Z" fill="#4D98CB"/>
<path class="p-3A4DE3" d="M21.0816 9.29595V13.0464C21.0816 13.5606 20.6648 13.9774 20.1507 13.9774C19.6365 13.9774 19.2197 13.5606 19.2197 13.0464V8.71313C19.8639 8.85157 20.4862 9.04697 21.0816 9.29595Z" fill="#4D98CB"/>
<path class="p-0088FF" d="M0 4.5918H3.74394C4.25809 4.5918 4.67489 5.0086 4.67489 5.52275C4.67489 6.0369 4.25809 6.4537 3.74394 6.4537H0V4.5918Z" fill="#5FBEFF"/>
<path class="p-7FC8F1" d="M7.17969 2.57471H14.3534V7.61191H7.17969V2.57471Z" fill="#65B3E7"/>
<path class="p-7FC8F1" d="M31.0559 21.9657C31.4541 21.9657 31.7769 22.2885 31.7769 22.6867C31.7769 25.0657 29.8417 27.0001 27.4634 27.0001H14.3525V25.1382H18.5847V21.5286H20.4466V25.1382H27.4634C28.8153 25.1382 29.915 24.0385 29.915 22.6867C29.915 22.2885 30.2378 21.9657 30.636 21.9657H31.0559Z" fill="#65B3E7"/>
<path class="p-CAE8F9" d="M14.3525 2.57471H14.3533V8.47074H14.3525V2.57471Z" fill="#CAE8F9"/>
<path class="p-0088FF" d="M27.6592 19.1535V22.4596H0V12.5481H0.0572148C3.0319 12.5481 4.88677 13.7583 5.92779 14.7911C6.59618 15.4539 7.01681 16.1199 7.26143 16.5878H27.347C27.5513 17.4101 27.6592 18.2691 27.6592 19.1535Z" fill="#5FBEFF"/>
<path class="p-3A4DE3" d="M27.6596 19.1536V22.4597H14.3525V16.5879H27.3473C27.5517 17.4102 27.6596 18.2692 27.6596 19.1536Z" fill="#4D98CB"/>
</svg>

<svg width="32" height="27" fill="none" xmlns="http://www.w3.org/2000/svg"><path class="p-CAE8F9" d="M27.66 19.153v3.306H0V0h14.353v8.478h2.63l.167.001a10.588 10.588 0 013.931.817 10.719 10.719 0 016.266 7.292c.204.822.312 1.681.312 2.565z" fill="#B9DFFC"/><path class="p-7FC8F1" d="M27.347 16.587a10.719 10.719 0 00-6.265-7.291 10.591 10.591 0 00-4.099-.818h-2.63v13.981H27.66v-3.306c0-.884-.108-1.743-.313-2.566z" fill="#A1D1FD"/><path class="p-CAE8F9" d="M31.055 21.966c.399 0 .721.322.721.72A4.318 4.318 0 0127.463 27H0v-1.862h6.966v-3.61h1.862v3.61h9.756v-3.61h1.862v3.61h7.017c1.352 0 2.452-1.1 2.452-2.451 0-.399.322-.721.72-.721h.42z" fill="#B9DFFC"/><path class="p-3A4DE3" d="M17.149 8.48v4.566a.93.93 0 01-1.862 0V8.479h1.695l.167.001zM21.082 9.296v3.75a.93.93 0 11-1.862 0V8.713a10.59 10.59 0 011.862.583z" fill="#4D98CB"/><path class="p-0088FF" d="M0 4.592h3.744a.93.93 0 110 1.862H0V4.592z" fill="#5FBEFF"/><path class="p-7FC8F1" d="M7.18 2.575h7.173v5.037H7.18V2.575zM31.056 21.966c.398 0 .72.322.72.72A4.318 4.318 0 0127.464 27h-13.11v-1.862h4.232v-3.61h1.862v3.61h7.016c1.352 0 2.452-1.1 2.452-2.451 0-.399.323-.721.721-.721h.42z" fill="#65B3E7"/><path class="p-CAE8F9" d="M14.352 2.575h.001V8.47 2.575z" fill="#CAE8F9"/><path class="p-0088FF" d="M27.66 19.154v3.306H0v-9.912h.057c2.975 0 4.83 1.21 5.87 2.243a7.35 7.35 0 011.334 1.797h20.086c.204.822.312 1.681.312 2.566z" fill="#5FBEFF"/><path class="p-3A4DE3" d="M27.66 19.154v3.306H14.352v-5.872h12.995c.205.822.313 1.681.313 2.566z" fill="#4D98CB"/></svg>
